X:7
T:Money in Both Pockets [1]
M:6/8
L:1/8
R:Air
Q:"Moderato"
B:J. Clinton – Gems of Ireland: 200 Airs (1841, No. 182, p. 93)
H:Irish-born Clinton was a flute teacher for the Royal Academy, London
Z:AK/Fiddler’s Companion
K:G
d|(g2B) (BA).B|(d>ed) (dc).B|(g2B) (BA).B|(d>ed) (c'b).a|
(g2B) T(BAB)|(d>ed) (dcB)|(A>BA) (AB).d|(e>=fe) .e2:|
|:d|(gb).d' (d'b).g|(fa).d' (af).d|(gb).d' (d'b).g|c'3 b2.c'|
(d'c').b (e'd').c'|(d'c').b (ag).f|(gf).e (dB).d|(e>=fe) .e2:|]

